src/icons/assets/icon-youtube.svg

<svg width="14" height="14" viewBox="0 0 14 14" fill="none" xmlns="http://www.w3.org/2000/svg">
<path d="M7.04462 2.1875H7.1225C7.84175 2.19012 11.4861 2.21638 12.4688 2.48063C12.7658 2.56127 13.0365 2.71847 13.2538 2.93651C13.471 3.15454 13.6273 3.42579 13.7069 3.72312C13.7952 4.05562 13.8574 4.49575 13.8994 4.94988L13.9081 5.04088L13.9274 5.26837L13.9344 5.35938C13.9913 6.15913 13.9983 6.90812 13.9991 7.07175V7.13737C13.9983 7.30713 13.9904 8.10687 13.9274 8.93987L13.9204 9.03175L13.9125 9.12275C13.8687 9.62325 13.804 10.1203 13.7069 10.486C13.6275 10.7835 13.4714 11.0548 13.2541 11.2729C13.0367 11.491 12.7659 11.6481 12.4688 11.7285C11.4537 12.0015 7.59587 12.0208 7.06125 12.0216H6.937C6.66663 12.0216 5.54838 12.0164 4.37587 11.9761L4.22712 11.9709L4.151 11.9674L4.00138 11.9613L3.85175 11.9551C2.8805 11.9123 1.95563 11.8431 1.5295 11.7276C1.23243 11.6473 0.961682 11.4903 0.744384 11.2724C0.527086 11.0545 0.370866 10.7833 0.291375 10.486C0.19425 10.1211 0.1295 9.62325 0.08575 9.12275L0.07875 9.03087L0.07175 8.93987C0.0285666 8.34697 0.00463738 7.75283 0 7.15837L0 7.05163C0.00175 6.8635 0.00875 6.21338 0.056 5.49588L0.062125 5.40575L0.06475 5.36025L0.07175 5.26925L0.091 5.04175L0.09975 4.95075C0.14175 4.49662 0.203875 4.05563 0.29225 3.724C0.371607 3.42654 0.527767 3.15517 0.745074 2.9371C0.962381 2.71902 1.2332 2.56191 1.53038 2.4815C1.9565 2.36775 2.88137 2.29775 3.85262 2.254L4.00138 2.24788L4.15188 2.24263L4.22712 2.24L4.37675 2.23388C5.20949 2.20679 6.04258 2.19162 6.87575 2.18838H7.04462V2.1875ZM5.6 4.99625V9.212L9.23738 7.105L5.6 4.99625Z" fill="#EDEBEE"/>
</svg>

<svg xmlns="http://www.w3.org/2000/svg" fill="none" viewBox="0 0 14 14">
  <defs />
  <path fill="#EDEBEE" d="M7.045 2.188h.077c.72.002 4.364.028 5.347.293a1.76 1.76 0 011.238 1.242c.088.333.15.773.192 1.227l.01.09.018.228.007.091c.057.8.064 1.55.065 1.713v.065c0 .17-.009.97-.072 1.803l-.007.092-.008.09c-.043.501-.108.998-.205 1.364a1.756 1.756 0 01-1.238 1.242c-1.015.274-4.873.293-5.408.294h-.124c-.27 0-1.389-.006-2.561-.046l-.149-.005-.076-.004-.15-.006-.15-.006c-.97-.043-1.895-.112-2.321-.227A1.756 1.756 0 01.29 10.486C.194 10.121.13 9.623.086 9.123L.079 9.03.072 8.94A27.475 27.475 0 010 7.158v-.106c.002-.188.009-.839.056-1.556l.006-.09.003-.046.007-.09.019-.228L.1 4.95c.042-.454.104-.895.192-1.227A1.756 1.756 0 011.53 2.481c.426-.113 1.351-.183 2.323-.227L4 2.248l.15-.005.076-.003.15-.006a87.3 87.3 0 012.499-.046h.169zM5.6 4.995v4.216l3.637-2.107L5.6 4.996z" />
</svg>
